assets/icons/traton/meatballs.svg

<svg xmlns="http://www.w3.org/2000/svg" fill="none" viewBox="0 0 32 32"><path fill="#001d21" d="M6 18v-4h4v4zm8 0v-4h4v4zm8 0v-4h4v4z"/></svg>

<svg xmlns="http://www.w3.org/2000/svg" width="32" height="32" viewBox="0 0 32 32" fill="none">
<path d="M6 18L6 14L10 14L10 18L6 18ZM14 18L14 14L18 14L18 18L14 18ZM22 18L22 14L26 14L26 18L22 18Z" fill="#001D21" />
</svg>
